X: 13405
T: Flitch Of Bacon, The
R: jig
M: 6/8
K: Gmajor
|:E|D2 G B^AB|cAG FGE|D2 G B^AB|cAF G2 E|
DGG BAG|cAG FF/G/A|f2 d fed|cAF G2:|
|:e|dd/e/f gag|fed gdB|def gbg|afd c2 A|
def gbg|fed g2 d|f2 d ff/e/d|cAF G2:|

